X:102
T:The gatehouse maid
R:Reel
O:Ireland
S:Music from Ireland Vol. 3
B:Music from Ireland Vol. 3
Z:Transcription, chords:Mike Long
M:C|
L:1/8
K:G
"Am"A2Bd edBA|"G"GFGA "(Em)"GEDE|"Am"A2Bd edBd|\
"G"egdB "(D)"BAA2:|"Am"a2ea agef|"G"g2dg "(Em)"Bgdg|
"Am"a2ea agab|"G"gedB "(D)"BAA2|"Am"agab agef|\
"G"g2af "(Em)"gedB|"G"dega bgaf|"G"gedB "(D)"BAA2|]
